X: 10271
T: Dodge The Milkshake
R: jig
M: 6/8
K: Gmajor
g3 age|=fed c2 B|AFA Ade|faf baf|
g3 age|=fed c2 B|AFA Ade|faf g3:|
bgb age|dAF D3|FED AFA|g3 efg|
bgb [d'a]ge|dAF D3|FED Fde|faf g3:|

